X:1
T: Val's Fancy
C:
R:Strathspey
Q: 128
K:A
M:4/4
L:1/16
|:((3efg)|a4 A4 f3g a3f|e3d c3e d3c Bc3|A4 a4 f3g a3f|ec3 A3c B4-B3c|
d3e ((3f2e2d2) c3d ((3e2d2c2) |db3 ca3 B3c ((3d2c2B2) |A3B c3d ((3e2f2g2) a3f|e4 G4 A6:|
|:B2|=c3c a4 e3a =c'3d'|((3e'2d'2=c'2) ((3d'2c'2b2) a4 e4|=fd'3 e=c'3 b3g a3a|((3b2a2g2) ((3a2g2f2) ((3e2f2e2) ((3e2f2g2) |
a4 A4 f3g a3f|e3d c3e d3c Bc3|A3B c3d ((3e2f2g2) a3f|e4 G4 A6:|
